svg/blobs-icons/no-decorations/oil-barrel.svg

<svg xmlns="http://www.w3.org/2000/svg" xmlns:xlink="http://www.w3.org/1999/xlink" preserveAspectRatio="xMidYMid" width="138" height="216" viewBox="0 0 138 216"><defs><style>.cls-3{fill:#0cb04a}.cls-4{fill:#000;opacity:.25}.cls-5{fill:#000;opacity:.35}.cls-8{fill:#142a3b}.cls-10{fill:#ededed}</style></defs><g id="group-115svg"><path d="M.006 21.737s0 172.056.0 172.056c0 12.005 30.844 21.738 68.883 21.738 38.037.0 68.884-9.733 68.884-21.738V21.737s0 0 0 0" id="path-1" class="cls-3" fill-rule="evenodd"/><path d="M.006 21.737s0 172.056.0 172.056c0 12.005 30.844 21.738 68.883 21.738 38.037.0 68.884-9.733 68.884-21.738V21.737s0 0 0 0" id="path-2" class="cls-4" fill-rule="evenodd"/><path d="M137.773 21.737s-13.166 12.776-13.166 12.776c-12.275 4.087-40.389 12.179-75.623 6.85C29.8 38.462 12.878 33.331 1.108 27.43c4.7 10.796 31.117 22.398 64.172 27.398C86.789 58.082 106.419 57.823 119.645 54.796V182.917c0 12.005-30.846 21.74-68.883 21.74C31.36 204.657 13.861 202.115 1.341 198.04c6.261 9.971 34.116 17.491 67.548 17.491 38.037.0 68.884-9.733 68.884-21.738V36.151s0-14.414.0-14.414z" id="path-3" class="cls-5" fill-rule="evenodd"/><path d="M137.773 21.737c0 12.004-30.847 21.739-68.884 21.739C30.85 43.476.006 33.741.006 21.737.006 9.732 30.85-.001 68.889-.001c38.037.0 68.884 9.733 68.884 21.738z" id="path-4" class="cls-3" fill-rule="evenodd"/><path d="M68.889-.001C66.439-.001 64.022.043 61.638.123 96.267 1.264 123.27 10.505 123.27 21.737c0 11.231-27.003 20.472-61.632 21.616C64.022 43.433 66.439 43.476 68.889 43.476c38.037.0 68.884-9.735 68.884-21.739.0-12.005-30.847-21.738-68.884-21.738z" id="path-5" class="cls-4" fill-rule="evenodd"/><path d="M44.079 21.737c0 1.995-5.125 3.613-11.445 3.613-6.319.0-11.443-1.618-11.443-3.613.0-1.994 5.124-3.61 11.443-3.61 6.32.0 11.445 1.616 11.445 3.61z" id="path-6" class="cls-8" fill-rule="evenodd"/><path d="M43.681 22.635c-1.27 1.558-5.714 2.715-11.047 2.715C29.788 25.35 27.217 25.009 25.214 24.467 24.979 24.755 24.816 25.052 24.816 25.363c0 1.996 5.124 3.612 11.444 3.612 6.319.0 11.444-1.616 11.444-3.612.0-1.096-1.581-2.066-4.023-2.728z" id="path-7" class="cls-5" fill-rule="evenodd"/><path d="M118.743 137.241c0 27.533-22.32 49.852-49.854 49.852-27.533.0-49.854-22.319-49.854-49.852.0-27.532 22.321-49.851 49.854-49.851 27.534.0 49.854 22.319 49.854 49.851z" id="path-8" class="cls-10" fill-rule="evenodd"/><path d="M94.588 94.581c14.457 8.729 24.155 24.542 24.155 42.66.0 27.533-22.32 49.852-49.854 49.852C62.366 187.093 56.152 185.805 50.442 183.526 57.953 188.06 66.726 190.718 76.14 190.718c27.533.0 49.853-22.318 49.853-49.852.0-21.01-13.013-38.947-31.405-46.285z" id="path-9" class="cls-5" fill-rule="evenodd"/><path d="M89.07 142.871c0 11.143-9.035 20.18-20.181 20.18C57.743 163.051 48.708 154.014 48.708 142.871c0-11.147 20.181-33.701 20.181-33.701S89.07 131.724 89.07 142.871z" id="path-10" class="cls-8" fill-rule="evenodd"/><path d="M68.889 109.17S67.402 110.839 65.264 113.448C71.067 120.524 81.819 134.728 81.819 142.871c0 9.905-7.143 18.128-16.555 19.837C66.441 162.923 67.649 163.051 68.889 163.051 80.035 163.051 89.07 154.014 89.07 142.871c0-11.147-20.181-33.701-20.181-33.701z" id="path-11" class="cls-4" fill-rule="evenodd"/></g></svg>

<svg xmlns="http://www.w3.org/2000/svg" xmlns:xlink="http://www.w3.org/1999/xlink" preserveAspectRatio="xMidYMid" width="138" height="216" viewBox="0 0 138 216">
  <defs>
    <style>

      .cls-3 {
        fill: #0cb04a;
      }

      .cls-4 {
        fill: #000000;
        opacity: 0.25;
      }

      .cls-5 {
        fill: #000000;
        opacity: 0.35;
      }

      .cls-8 {
        fill: #142a3b;
      }

      .cls-10 {
        fill: #ededed;
      }
    </style>
  </defs>
  <g id="group-115svg">
    <path d="M0.006,21.737 C0.006,21.737 0.006,193.793 0.006,193.793 C0.006,205.798 30.850,215.531 68.889,215.531 C106.926,215.531 137.773,205.798 137.773,193.793 C137.773,193.793 137.773,21.737 137.773,21.737 C137.773,21.737 137.773,21.737 137.773,21.737 " id="path-1" class="cls-3" fill-rule="evenodd"/>
    <path d="M0.006,21.737 C0.006,21.737 0.006,193.793 0.006,193.793 C0.006,205.798 30.850,215.531 68.889,215.531 C106.926,215.531 137.773,205.798 137.773,193.793 C137.773,193.793 137.773,21.737 137.773,21.737 C137.773,21.737 137.773,21.737 137.773,21.737 " id="path-2" class="cls-4" fill-rule="evenodd"/>
    <path d="M137.773,21.737 C137.773,21.737 124.607,34.513 124.607,34.513 C112.332,38.600 84.218,46.692 48.984,41.363 C29.800,38.462 12.878,33.331 1.108,27.430 C5.808,38.226 32.225,49.828 65.280,54.828 C86.789,58.082 106.419,57.823 119.645,54.796 C119.645,54.796 119.645,182.917 119.645,182.917 C119.645,194.922 88.799,204.657 50.762,204.657 C31.360,204.657 13.861,202.115 1.341,198.040 C7.602,208.011 35.457,215.531 68.889,215.531 C106.926,215.531 137.773,205.798 137.773,193.793 C137.773,193.793 137.773,36.151 137.773,36.151 C137.773,36.151 137.773,21.737 137.773,21.737 Z" id="path-3" class="cls-5" fill-rule="evenodd"/>
    <path d="M137.773,21.737 C137.773,33.741 106.926,43.476 68.889,43.476 C30.850,43.476 0.006,33.741 0.006,21.737 C0.006,9.732 30.850,-0.001 68.889,-0.001 C106.926,-0.001 137.773,9.732 137.773,21.737 Z" id="path-4" class="cls-3" fill-rule="evenodd"/>
    <path d="M68.889,-0.001 C66.439,-0.001 64.022,0.043 61.638,0.123 C96.267,1.264 123.270,10.505 123.270,21.737 C123.270,32.968 96.267,42.209 61.638,43.353 C64.022,43.433 66.439,43.476 68.889,43.476 C106.926,43.476 137.773,33.741 137.773,21.737 C137.773,9.732 106.926,-0.001 68.889,-0.001 Z" id="path-5" class="cls-4" fill-rule="evenodd"/>
    <path d="M44.079,21.737 C44.079,23.732 38.954,25.350 32.634,25.350 C26.315,25.350 21.191,23.732 21.191,21.737 C21.191,19.743 26.315,18.127 32.634,18.127 C38.954,18.127 44.079,19.743 44.079,21.737 Z" id="path-6" class="cls-8" fill-rule="evenodd"/>
    <path d="M43.681,22.635 C42.411,24.193 37.967,25.350 32.634,25.350 C29.788,25.350 27.217,25.009 25.214,24.467 C24.979,24.755 24.816,25.052 24.816,25.363 C24.816,27.359 29.940,28.975 36.260,28.975 C42.579,28.975 47.704,27.359 47.704,25.363 C47.704,24.267 46.123,23.297 43.681,22.635 Z" id="path-7" class="cls-5" fill-rule="evenodd"/>
    <path d="M118.743,137.241 C118.743,164.774 96.423,187.093 68.889,187.093 C41.356,187.093 19.035,164.774 19.035,137.241 C19.035,109.709 41.356,87.390 68.889,87.390 C96.423,87.390 118.743,109.709 118.743,137.241 Z" id="path-8" class="cls-10" fill-rule="evenodd"/>
    <path d="M94.588,94.581 C109.045,103.310 118.743,119.123 118.743,137.241 C118.743,164.774 96.423,187.093 68.889,187.093 C62.366,187.093 56.152,185.805 50.442,183.526 C57.953,188.060 66.726,190.718 76.140,190.718 C103.673,190.718 125.993,168.400 125.993,140.866 C125.993,119.856 112.980,101.919 94.588,94.581 Z" id="path-9" class="cls-5" fill-rule="evenodd"/>
    <path d="M89.070,142.871 C89.070,154.014 80.035,163.051 68.889,163.051 C57.743,163.051 48.708,154.014 48.708,142.871 C48.708,131.724 68.889,109.170 68.889,109.170 C68.889,109.170 89.070,131.724 89.070,142.871 Z" id="path-10" class="cls-8" fill-rule="evenodd"/>
    <path d="M68.889,109.170 C68.889,109.170 67.402,110.839 65.264,113.448 C71.067,120.524 81.819,134.728 81.819,142.871 C81.819,152.776 74.676,160.999 65.264,162.708 C66.441,162.923 67.649,163.051 68.889,163.051 C80.035,163.051 89.070,154.014 89.070,142.871 C89.070,131.724 68.889,109.170 68.889,109.170 Z" id="path-11" class="cls-4" fill-rule="evenodd"/>
  </g>
</svg>
